static/assets/images/icons/tenderly.svg

<svg width="256" height="256" viewBox="0 0 256 256" fill="none" xmlns="http://www.w3.org/2000/svg">
<path d="M178.597 85.8621L236.932 50.7674L236.98 115.965L191.789 140.694C160.966 157.564 147.924 170.141 136.024 199.341C130.612 212.621 128.25 230.246 128.019 235.156C128.019 203.884 129.777 194.533 129.777 168.203C129.777 161.715 130.536 154.578 131.427 151.161C131.427 151.161 139.099 107.479 178.597 85.8621Z" fill="black"/>
<path d="M127.99 169.552L128.019 235.156L72.8299 205.035L72.8058 154.213C72.7898 119.549 61.7474 93.5393 47.7627 77.8217C33.782 62.11 23.2543 57.3614 19 54.7755C46.5449 69.2987 53.8317 73.2169 77.3206 85.6144C83.1389 88.6843 90.7141 94.5292 93.3185 96.9556C93.3185 96.9556 127.97 125.13 127.99 169.552Z" fill="black"/>
<path d="M178.504 82.6921C202.051 69.9812 219.158 60.4534 236.932 50.7674C232.453 52.9892 222.896 59.4529 201.818 62.9755C180.73 66.4999 151.088 65.7404 120.543 47.5983L75.7625 21L19 54.7755L80.9063 83.3866C95.9123 92.2363 133.378 107.051 178.504 82.6921Z" fill="black"/>
</svg>

<svg xmlns="http://www.w3.org/2000/svg" fill="none" viewBox="0 0 256 256"><path fill="#000" d="m178.597 85.862 58.335-35.095.048 65.198-45.191 24.729c-30.823 16.87-43.865 29.447-55.765 58.647-5.412 13.28-7.774 30.905-8.005 35.815 0-31.272 1.758-40.623 1.758-66.953 0-6.488.759-13.625 1.65-17.042 0 0 7.672-43.682 47.17-65.299m-50.607 83.69.029 65.604-55.19-30.121-.023-50.822c-.016-34.664-11.059-60.674-25.043-76.391C33.782 62.11 23.254 57.362 19 54.776c27.545 14.523 34.832 18.44 58.32 30.838 5.819 3.07 13.394 8.915 15.999 11.342 0 0 34.651 28.174 34.671 72.596"/><path fill="#000" d="M178.504 82.692c23.547-12.71 40.654-22.239 58.428-31.925-4.479 2.222-14.036 8.686-35.114 12.208-21.088 3.525-50.73 2.765-81.275-15.377L75.763 21 19 54.776l61.906 28.61c15.006 8.85 52.472 23.665 97.598-.694"/></svg>
